X: 41
T:Piper's Weird
M:6/8
L:1/8
C:J. S. Skinner
R:Air
K:A
"A"A>AA A>AA|"E"BAB "A"{AB}c2A|"D"f>ff "A"e2c|1 "A"c>BA "E"{A}B3:||2 "E"
eBe "A"A2||!
A|"A"{g}a2Ae2A|"D"fAf "A"e2A|"A"{g}a2Ae2A| "A"c>BA "E"{A}B2A|!
"A"{g}a2Ae2A|"D"fAf "A"e2e|"D"f<af "A"{f}e2c|"E"eBe "A"A2||
